images/icons/twitter-icon.svg

<svg width="32" height="32" viewBox="0 0 32 32" fill="none" xmlns="http://www.w3.org/2000/svg">
<path d="M15.9997 0C7.17757 0 0 7.17757 0 16C0 24.8227 7.17757 32 15.9997 32C24.8222 32 32 24.8227 32 16C31.9997 7.17757 24.8219 0 15.9997 0ZM15.9997 30.4219C8.0476 30.4219 1.57806 23.9524 1.57806 16C1.57806 8.04787 8.0476 1.57806 15.9997 1.57806C23.9519 1.57806 30.4219 8.04787 30.4219 16C30.4217 23.9524 23.9519 30.4219 15.9997 30.4219Z" fill="#484E53"/>
<path d="M23.1403 10.787C23.508 10.5971 24.3885 10.0329 24.8036 8.822C24.8036 8.822 23.8033 9.54528 22.442 9.63049L22.4173 9.64417C22.0605 9.2538 21.6262 8.94216 21.1422 8.72917C20.6582 8.51618 20.135 8.40653 19.6062 8.40723C17.5 8.40723 15.7928 10.1147 15.7928 12.2209C15.7928 12.5404 15.8325 12.8508 15.9069 13.1475L15.8885 13.1199C15.8885 13.1199 11.804 13.3539 7.95324 9.14129C7.95324 9.14129 6.25077 12.0347 9.16572 14.2474C8.52739 14.3536 7.40013 13.7792 7.40013 13.7792C7.40013 13.7792 7.46378 16.8212 10.4847 17.5661C9.99552 17.6939 9.0805 17.736 8.78278 17.6087C8.78278 17.6087 9.22937 19.9274 12.3145 20.3319C11.5273 20.7787 10.0594 22.1401 6.74023 21.8847C6.74023 21.8847 9.12364 23.8418 13.5488 23.5656C17.974 23.2894 21.1866 20.3103 22.4843 17.1618C23.782 14.0133 23.4209 12.2206 23.4209 12.2206C23.4209 12.2206 24.5053 11.6515 25.2507 10.2901C24.9064 10.3932 23.6295 10.7052 23.1542 10.8206C23.1494 10.8095 23.1448 10.7982 23.1403 10.787Z" fill="#484E53"/>
</svg>

<svg xmlns="http://www.w3.org/2000/svg" width="32" height="32" fill="none"><path fill="#484E53" d="M16 0C7.178 0 0 7.178 0 16c0 8.823 7.178 16 16 16s16-7.177 16-16c0-8.822-7.178-16-16-16m0 30.422c-7.952 0-14.422-6.47-14.422-14.422S8.048 1.578 16 1.578 30.422 8.048 30.422 16 23.952 30.422 16 30.422"/><path fill="#484E53" d="M23.14 10.787a3.48 3.48 0 0 0 1.664-1.965s-1 .723-2.362.808l-.025.014a3.8 3.8 0 0 0-2.81-1.237 3.813 3.813 0 0 0-3.7 4.74l-.018-.027s-4.085.234-7.936-3.979c0 0-1.702 2.894 1.213 5.106-.639.107-1.766-.468-1.766-.468s.064 3.042 3.085 3.787c-.49.128-1.404.17-1.702.043 0 0 .446 2.318 3.532 2.723-.788.447-2.256 1.808-5.575 1.553 0 0 2.384 1.957 6.809 1.68 4.425-.276 7.638-3.255 8.935-6.403 1.298-3.149.937-4.941.937-4.941s1.084-.57 1.83-1.93c-.345.102-1.622.414-2.097.53z"/></svg>
